icons/circle/48/angrysearch.svg

<svg xmlns="http://www.w3.org/2000/svg" viewBox="0 0 48 48">
 <defs>
  <linearGradient id="linearGradient3764" x1="1" x2="47" gradientUnits="userSpaceOnUse" gradientTransform="matrix(0,-1,1,0,-1.5e-6,47.999998)">
   <stop style="stop-color:#d05858;stop-opacity:1"/>
   <stop offset="1" style="stop-color:#d46868;stop-opacity:1"/>
  </linearGradient>
 </defs>
 <g>
  <path d="m 36.31 5 c 5.859 4.062 9.688 10.831 9.688 18.5 c 0 12.426 -10.07 22.5 -22.5 22.5 c -7.669 0 -14.438 -3.828 -18.5 -9.688 c 1.037 1.822 2.306 3.499 3.781 4.969 c 4.085 3.712 9.514 5.969 15.469 5.969 c 12.703 0 23 -10.298 23 -23 c 0 -5.954 -2.256 -11.384 -5.969 -15.469 c -1.469 -1.475 -3.147 -2.744 -4.969 -3.781 z m 4.969 3.781 c 3.854 4.113 6.219 9.637 6.219 15.719 c 0 12.703 -10.297 23 -23 23 c -6.081 0 -11.606 -2.364 -15.719 -6.219 c 4.16 4.144 9.883 6.719 16.219 6.719 c 12.703 0 23 -10.298 23 -23 c 0 -6.335 -2.575 -12.06 -6.719 -16.219 z" style="opacity:0.05"/>
  <path d="m 41.28 8.781 c 3.712 4.085 5.969 9.514 5.969 15.469 c 0 12.703 -10.297 23 -23 23 c -5.954 0 -11.384 -2.256 -15.469 -5.969 c 4.113 3.854 9.637 6.219 15.719 6.219 c 12.703 0 23 -10.298 23 -23 c 0 -6.081 -2.364 -11.606 -6.219 -15.719 z" style="opacity:0.1"/>
  <path d="m 31.25 2.375 c 8.615 3.154 14.75 11.417 14.75 21.13 c 0 12.426 -10.07 22.5 -22.5 22.5 c -9.708 0 -17.971 -6.135 -21.12 -14.75 a 23 23 0 0 0 44.875 -7 a 23 23 0 0 0 -16 -21.875 z" style="opacity:0.2"/>
 </g>
 <g>
  <path d="m 24 1 c 12.703 0 23 10.297 23 23 c 0 12.703 -10.297 23 -23 23 -12.703 0 -23 -10.297 -23 -23 0 -12.703 10.297 -23 23 -23 z" style="fill:url(#linearGradient3764);fill-opacity:1"/>
 </g>
 <g>
  <path d="m 40.03 7.531 c 3.712 4.084 5.969 9.514 5.969 15.469 0 12.703 -10.297 23 -23 23 c -5.954 0 -11.384 -2.256 -15.469 -5.969 4.178 4.291 10.01 6.969 16.469 6.969 c 12.703 0 23 -10.298 23 -23 0 -6.462 -2.677 -12.291 -6.969 -16.469 z" style="opacity:0.1"/>
 </g>
 <g>
  <g>
   <g>
    <!-- color: #cccdb6 -->
    <g>
     <path d="m 29 11.996 c -4.971 0 -9 4.03 -9 9 0.004 2.01 0.684 3.97 1.932 5.553 l -4.748 4.748 1.504 1.504 4.74 -4.74 c 1.587 1.253 3.55 1.935 5.572 1.936 4.971 0 9 -4.03 9 -9 0 -4.971 -4.03 -9 -9 -9 z m -12.266 19.13 -4.734 4.734 2.145 2.145 4.734 -4.734" style="fill:#000;opacity:0.1;fill-opacity:1;stroke:none;fill-rule:nonzero"/>
     <path d="m 28 11.494 c -4.699 0 -8.5 3.809 -8.5 8.504 0 4.699 3.801 8.504 8.5 8.504 c 4.695 0 8.498 -3.803 8.498 -8.502 c 0 -4.695 -3.803 -8.506 -8.498 -8.506 z" style="fill:#86b7d5;fill-opacity:1;stroke:none;fill-rule:nonzero"/>
     <path d="m 21.02 25.466 -4.834 4.835 1.504 1.504 4.834 -4.835 z m -5.284 4.659 -4.734 4.734 l 2.145 2.145 4.734 -4.734 z" style="fill:#dcdcdc;fill-opacity:1;stroke:none;fill-rule:nonzero"/>
     <path d="M 28.311 11.51 A 9 9 0 0 0 19.512 20.19 C 19.614 24.799 23.368 28.502 28 28.502 C 32.697 28.502 36.5 24.699 36.5 20 C 36.5 15.409 32.861 11.674 28.311 11.51 z M 28.5 13 A 7.5 7.5 0 0 1 36 20.5 A 7.5 7.5 0 0 1 28.5 28 A 7.5 7.5 0 0 1 21 20.5 A 7.5 7.5 0 0 1 28.5 13 z" style="fill:#000;opacity:0.1;fill-opacity:1;stroke:none;fill-rule:nonzero"/>
    </g>
   </g>
  </g>
  <path d="m 28 11 a 9 9 0 0 0 -9 9 9 9 0 0 0 9 9 9 9 0 0 0 9 -9 9 9 0 0 0 -9 -9 z m 0 1.5 A 7.5 7.5 0 0 1 35.5 20 7.5 7.5 0 0 1 28 27.5 7.5 7.5 0 0 1 20.5 20 7.5 7.5 0 0 1 28 12.5" style="fill:#dcdcdc;opacity:1;fill-opacity:1;stroke:none"/>
 </g>
</svg>

<svg xmlns="http://www.w3.org/2000/svg" viewBox="0 0 48 48">
  <defs>
    <linearGradient id="a" x1="1" x2="47" gradientUnits="userSpaceOnUse" gradientTransform="rotate(-90 24 24)">
      <stop stop-color="#d05858"/>
      <stop offset="1" stop-color="#d46868"/>
    </linearGradient>
  </defs>
  <path d="M36.31 5c5.859 4.062 9.688 10.831 9.688 18.5 0 12.426-10.07 22.5-22.5 22.5-7.669 0-14.438-3.828-18.5-9.688a23.24 23.24 0 0 0 3.781 4.969 22.923 22.923 0 0 0 15.469 5.969c12.703 0 23-10.298 23-23a22.92 22.92 0 0 0-5.969-15.469A23.216 23.216 0 0 0 36.31 5zm4.969 3.781A22.911 22.911 0 0 1 47.498 24.5c0 12.703-10.297 23-23 23a22.909 22.909 0 0 1-15.719-6.219C12.939 45.425 18.662 48 24.998 48c12.703 0 23-10.298 23-23 0-6.335-2.575-12.06-6.719-16.219z" opacity=".05"/>
  <path d="M41.28 8.781a22.923 22.923 0 0 1 5.969 15.469c0 12.703-10.297 23-23 23A22.92 22.92 0 0 1 8.78 41.281 22.911 22.911 0 0 0 24.499 47.5c12.703 0 23-10.298 23-23A22.909 22.909 0 0 0 41.28 8.781z" opacity=".1"/>
  <path d="M31.25 2.375C39.865 5.529 46 13.792 46 23.505c0 12.426-10.07 22.5-22.5 22.5-9.708 0-17.971-6.135-21.12-14.75a23 23 0 0 0 44.875-7 23 23 0 0 0-16-21.875z" opacity=".2"/>
  <path d="M24 1c12.703 0 23 10.297 23 23S36.703 47 24 47 1 36.703 1 24 11.297 1 24 1z" fill="url(#a)"/>
  <g>
    <path d="M40.03 7.531A22.922 22.922 0 0 1 45.999 23c0 12.703-10.297 23-23 23A22.92 22.92 0 0 1 7.53 40.031C11.708 44.322 17.54 47 23.999 47c12.703 0 23-10.298 23-23 0-6.462-2.677-12.291-6.969-16.469z" opacity=".1"/>
  </g>
  <g>
    <path d="M29 11.996a9 9 0 0 0-9 9 9.008 9.008 0 0 0 1.932 5.553l-4.748 4.748 1.504 1.504 4.74-4.74A9 9 0 0 0 29 29.997a9 9 0 0 0 0-18zm-12.266 19.13L12 35.86l2.145 2.145 4.734-4.734" opacity=".1"/>
    <path d="M28 11.494a8.5 8.5 0 0 0-8.5 8.504 8.498 8.498 0 0 0 8.5 8.504A8.497 8.497 0 0 0 36.498 20c0-4.695-3.803-8.506-8.498-8.506z" fill="#86b7d5"/>
    <path d="M21.02 25.466l-4.834 4.835 1.504 1.504 4.834-4.835zm-5.284 4.659l-4.734 4.734 2.145 2.145 4.734-4.734z" fill="#dcdcdc"/>
    <path d="M28.311 11.51a9 9 0 0 0-8.799 8.68c.102 4.609 3.856 8.312 8.488 8.312 4.697 0 8.5-3.803 8.5-8.502 0-4.591-3.639-8.326-8.189-8.49zM28.5 13a7.5 7.5 0 0 1 7.5 7.5 7.5 7.5 0 0 1-7.5 7.5 7.5 7.5 0 0 1-7.5-7.5 7.5 7.5 0 0 1 7.5-7.5z" opacity=".1"/>
    <path d="M28 11a9 9 0 0 0-9 9 9 9 0 0 0 9 9 9 9 0 0 0 9-9 9 9 0 0 0-9-9zm0 1.5a7.5 7.5 0 0 1 7.5 7.5 7.5 7.5 0 0 1-7.5 7.5 7.5 7.5 0 0 1-7.5-7.5 7.5 7.5 0 0 1 7.5-7.5" fill="#dcdcdc"/>
  </g>
</svg>
